X: 8506
T: Creel Of Turf, The
R: jig
M: 6/8
K: Edorian
|:D|EBB BAG|FDF AFD|EBB GBB|AGF E2D|
EBB BAG|FDF ABc|ded ~B3|AGF E2:|
|:A|Bee ede|faf dBA|Bee ede|fec d2A|
Bee ede|~f3 dBA|B/c/dB GBd|AGF E2:|

